client/assets/eye.svg

<svg width="70" height="40" viewBox="0 0 70 40" fill="none" xmlns="http://www.w3.org/2000/svg">
<path d="M34.9942 12.186C38.8134 12.186 42.4762 13.6512 45.1768 16.2593C47.8774 18.8673 49.3946 22.4046 49.3946 26.093C49.3946 29.7814 47.8774 33.3187 45.1768 35.9267C42.4762 38.5348 38.8134 40 34.9942 40C31.1749 40 27.5121 38.5348 24.8115 35.9267C22.1109 33.3187 20.5937 29.7814 20.5937 26.093C20.5937 22.4046 22.1109 18.8673 24.8115 16.2593C27.5121 13.6512 31.1749 12.186 34.9942 12.186V12.186ZM34.9942 0C51.6015 0 65.9407 10.9518 69.9188 26.2981C70.0931 26.969 69.9843 27.6791 69.6163 28.2725C69.2483 28.8658 68.6514 29.2937 67.9568 29.462C67.2622 29.6303 66.5268 29.5252 65.9124 29.1698C65.298 28.8145 64.8549 28.238 64.6807 27.5671C63.0165 21.1797 59.1913 15.5119 53.8119 11.463C48.4324 7.41411 41.807 5.21609 34.9867 5.21769C28.1665 5.21929 21.5422 7.42041 16.1648 11.4718C10.7874 15.5232 6.96497 21.1928 5.30404 27.5811C5.11752 28.2379 4.67227 28.7982 4.06351 29.1422C3.45475 29.4861 2.7308 29.5863 2.0465 29.4215C1.36219 29.2566 0.771846 28.8397 0.401714 28.2599C0.0315812 27.6801 -0.0889557 26.9835 0.0658795 26.319C2.01812 18.8004 6.51533 12.1271 12.8434 7.3588C19.1715 2.59048 26.9677 0.000467872 34.9942 0V0Z" fill="black"/>
</svg>

<svg xmlns="http://www.w3.org/2000/svg" width="70" height="40" fill="none"><path d="M34.994 12.186c3.819 0 7.482 1.465 10.183 4.073s4.218 6.145 4.218 9.834-1.517 7.226-4.218 9.834S38.813 40 34.994 40s-7.482-1.465-10.183-4.073-4.218-6.145-4.218-9.834 1.517-7.226 4.218-9.834 6.363-4.073 10.183-4.073h0zm0-12.186c16.607 0 30.947 10.952 34.925 26.298a2.53 2.53 0 0 1-.303 1.974c-.368.593-.965 1.021-1.659 1.189s-1.43.063-2.044-.292-1.058-.932-1.232-1.603c-1.664-6.387-5.489-12.055-10.869-16.104S41.807 5.216 34.987 5.218 21.542 7.42 16.165 11.472s-9.2 9.721-10.861 16.109c-.187.657-.632 1.217-1.241 1.561s-1.333.444-2.017.279S.772 28.84.402 28.26a2.53 2.53 0 0 1-.336-1.941C2.018 18.8 6.515 12.127 12.843 7.359S26.968 0 34.994 0h0z" fill="#000"/></svg>
